assets/elasticstack/original.svg

<svg viewBox="0 0 24 24" xmlns="http://www.w3.org/2000/svg" fill="#005571"><path d="m1.875 0c-1.036 0-1.875.84-1.875 1.875v4.792h24v-4.792c0-1.036-.84-1.875-1.875-1.875zm-1.875 8.889v6.222h24v-6.221zm0 8.444v4.792c0 1.036.84 1.875 1.875 1.875h9v-6.667zm13.125 0v6.667h9c1.036 0 1.875-.84 1.875-1.875v-4.792z"/></svg>

<svg xmlns="http://www.w3.org/2000/svg" fill="#005571" viewBox="0 0 24 24"><path d="M1.875 0C.839 0 0 .84 0 1.875v4.792h24V1.875C24 .839 23.16 0 22.125 0zM0 8.889v6.222h24V8.89zm0 8.444v4.792C0 23.161.84 24 1.875 24h9v-6.667zm13.125 0V24h9C23.161 24 24 23.16 24 22.125v-4.792z"/></svg>
